X:75
T: Irish Washerwoman
T: Bhean Nioch\'ain \'Eireannach (An)
S: B.Breathnach: "Ceol Rince na hEireann" II/19
Z: B.Black
L: 1/8
M: 6/8
R: jig
K: G
dc|: B2G DGG|BGB dcB|c2A DFA|cBc edc|
BGG DGG|BGB dgd|cBc Adc|1 BGG G2d :|2\
BGG G3||
gfa gdg|gdg bag|fdf fdf|gfg a2g|
efg dgg|ege dBG|cBc Adc|BGG G2g|
gfa gdg|gdg bag|fdA DFA|f2g afd|
geg fdf|ecA dBG|c2c ABc|def g3||

